themes/mukurtu_v4/images/facebook.svg

<svg xmlns="http://www.w3.org/2000/svg" viewBox="0 0 24 24" fill="#cccccc"><path d="M14 13.5H16.5L17.5 9.5H14V7.5C14 6.47062 14 5.5 16 5.5H17.5V2.1401C17.1743 2.09685 15.943 2 14.6429 2C11.9284 2 10 3.65686 10 6.69971V9.5H7V13.5H10V22H14V13.5Z"></path></svg>

<svg xmlns="http://www.w3.org/2000/svg" fill="#ccc" viewBox="0 0 24 24" aria-hidden="true"><path d="M14 13.5h2.5l1-4H14v-2c0-1.03 0-2 2-2h1.5V2.14c-.326-.043-1.557-.14-2.857-.14C11.928 2 10 3.657 10 6.7v2.8H7v4h3V22h4z"/></svg>
